src/lib/packages/icons/src/assets/filled/presentation-lightbulb.svg

<svg xmlns="http://www.w3.org/2000/svg" width="24" height="24" fill="none"><path fill="currentColor" d="M21 2.25H3a.75.75 0 0 0 0 1.5h1V13c0 2.29 1.21 3.5 3.5 3.5h3.75v2.1l-2.67 1.78c-.34.23-.43.69-.2 1.04.23.34.69.43 1.04.2L12 19.9l2.58 1.72a.751.751 0 0 0 .84-1.24l-2.67-1.78v-2.1h3.75c2.29 0 3.5-1.21 3.5-3.5V3.75h1a.75.75 0 0 0 0-1.5Zm-8.5 11.5h-1a.75.75 0 0 1 0-1.5h1a.75.75 0 0 1 0 1.5Zm1.28-3.394c-.211.191-.369.548-.467.871a.392.392 0 0 1-.378.273h-1.878a.392.392 0 0 1-.378-.272c-.098-.327-.266-.691-.47-.889a2.604 2.604 0 0 1-.855-1.941 2.646 2.646 0 0 1 3.037-2.62c1.117.156 2.051 1.055 2.223 2.17a2.678 2.678 0 0 1-.834 2.408Z"/></svg>

<svg width="24" height="24" viewBox="0 0 24 24" fill="none" xmlns="http://www.w3.org/2000/svg">
<path d="M21 2.25H3C2.586 2.25 2.25 2.586 2.25 3C2.25 3.414 2.586 3.75 3 3.75H4V13C4 15.29 5.21 16.5 7.5 16.5H11.25V18.6L8.58002 20.38C8.24002 20.61 8.15 21.07 8.38 21.42C8.61 21.76 9.06998 21.85 9.41998 21.62L12 19.9L14.58 21.62C14.71 21.71 14.86 21.75 15 21.75C15.24 21.75 15.48 21.63 15.62 21.42C15.85 21.07 15.76 20.61 15.42 20.38L12.75 18.6V16.5H16.5C18.79 16.5 20 15.29 20 13V3.75H21C21.414 3.75 21.75 3.414 21.75 3C21.75 2.586 21.414 2.25 21 2.25ZM12.5 13.75H11.5C11.086 13.75 10.75 13.414 10.75 13C10.75 12.586 11.086 12.25 11.5 12.25H12.5C12.914 12.25 13.25 12.586 13.25 13C13.25 13.414 12.914 13.75 12.5 13.75ZM13.78 10.356C13.569 10.547 13.411 10.9041 13.313 11.2271C13.263 11.3921 13.107 11.5 12.935 11.5H11.057C10.885 11.5 10.729 11.392 10.679 11.228C10.581 10.901 10.413 10.537 10.209 10.339C9.67998 9.86299 9.354 9.16595 9.354 8.39795C9.354 6.80495 10.75 5.54795 12.391 5.77795C13.508 5.93395 14.442 6.833 14.614 7.948C14.762 8.904 14.409 9.78196 13.78 10.356Z" fill="currentColor"/>
</svg>
